svg/emoji_u1f4a5.svg

<svg width="128" height="128" xmlns="http://www.w3.org/2000/svg"><path d="M120.82 72.98c-3.1-1.08-6.33-1.71-9.48-2.64-1.23-.37-2.7-.65-3.63-1.6-2.39-2.46 2.5-4.22 4.25-4.81 1.1-.37 2.11-.81 3.17-1.28 1.04-.47 11.01-3.07 7.3-5.34-.79-.48-1.76-.55-2.62-.82-2.1-.65-4.25-1.11-6.38-1.67-2.01-.53-4.57-.09-6.3-1.46-3.43-2.7 1.68-6.49 3.78-7.81 1.21-.76 3.45-1.77 3.46-3.48.01-2.56-3.52-1.93-5.08-2.04-2.16-.16-4.33-.29-6.49-.47-1-.08-2.37-.28-3.16-.95-1.01-.85.1-2.78.47-3.74 1.11-2.95 2.44-5.81 3.84-8.63 1.68-3.39 3.48-6.72 5.17-10.11.85-1.69 1.67-3.4 2.44-5.12.56-1.25 1.89-3.92.08-4.72-1.5-.65-3.09.6-4.21 1.44-.5.37-.98.74-1.47 1.12-3.06 2.37-6 4.89-8.91 7.44-2.9 2.55-5.77 5.14-8.69 7.67-.74.64-1.52 1.26-2.39 1.73-1.18.64-2.65.95-3.51-.34-.88-1.32-.92-3.19-.96-4.72-.05-2.04.08-4.08.19-6.11.08-1.5.42-3.19-.1-4.64-.84-2.36-3.47-1.43-4.58.05-1.17 1.55-1.77 3.47-2.65 5.18-1.21 2.38-2.5 4.75-4.1 6.9-1.3 1.75-2.93 3.63-5.08 4.32-2.23.72-4.28-.42-5.79-2.04-1.62-1.74-3.19-3.52-4.73-5.33-2.58-3.03-5.07-6.14-7.57-9.25-1.24-1.55-2.48-3.1-3.75-4.64-.82-1-2.15-2.79-3.62-2.68-2.72.22-.82 6.56-.62 8.01.46 3.31.72 6.64 1.42 9.91.47 2.22 1.02 4.41 1.41 6.65.24 1.4.49 4.03-.75 5.09-1.68 1.42-3.97-.77-5.32-1.59-.88-.53-1.64-1.24-2.52-1.78-3.75-2.31-3.77 1.58-3.47 4.31.18 1.69.43 3.05-1.72 2.96-1.75-.08-3.5-1.08-5.13-1.65-2.04-.7-4.07-1.42-6.1-2.15C12.96 30.73 9 29.3 5 27.97c-1.06-.35-2.64.26-2.98 1.38-.68 2.23 3.69 6.48 4.93 8.06 3.85 4.89 8.79 8.68 12.71 13.48 1.7 2.1 3.78 5.3 2.5 8.08-1.3 2.85-5.33 4.24-7.95 5.63-1.58.84-6.1 2.98-4.33 5.41.32.44 1.07.75 1.56.96.79.35 1.65.59 2.49.75 2.87.55 5.79.73 8.69 1.07 2.31.27 5.09 1.37 4.62 4.1-.56 3.28-3.57 6.33-5.71 8.68-3.25 3.56-6.67 6.97-10.02 10.43-1.18 1.22-8.71 7.46-6.23 9.32 1.45 1.09 4.9-.38 6.45-.75 5.78-1.39 11.55-2.85 17.28-4.44 1.55-.43 3.1-.88 4.63-1.35 4.24-1.31 9.58-2.53 10.28 3.37.39 3.18.35 6.39.65 9.58.39 4 .16 8.17 1.22 12.05.61 2.25 3.01 2.25 4.38.88 1.71-1.71 2.61-4.35 3.7-6.48 1.32-2.6 2.53-5.24 3.8-7.86 1.42-2.95 3.02-7.16 6.25-8.55 3.26-1.4 5.44 1.58 7.35 3.71 1.84 2.06 3.51 4.28 5.48 6.24 1.16 1.16 2.24 2.55 3.73 3.31.63.32 1.39.55 1.95.01 1.59-1.55 1.1-3.8 1.49-5.77.63-3.18 1.28-6.99 3.45-9.53 2.2-2.56 5.43-1.34 8.12-.45 3.91 1.29 7.8 2.63 11.68 4.02 2.18.78 4.37 1.55 6.53 2.38 1.44.55 2.97.87 4.43 1.32.81.25 1.59.59 2.41.81 2.27.62 5.21-.13 3.16-2.82-1.61-2.12-3.99-3.72-5.91-5.55-2.24-2.12-4.45-4.29-6.75-6.33-2.73-2.42-5.82-4.58-7.66-7.81-.68-1.18-1.73-2.84-.9-4.2.88-1.46 3.4-1.55 4.88-1.9 3.77-.89 7.66-.7 11.5-.85 1.92-.07 4.68.08 6.37-.9 3.04-1.77-3.17-4.04-4.41-4.48z" fill="#ed6c30"/><path d="M88.36 67.72c-3.47.5-7.81 2.4-6.33 6.59 1.03 2.91 3.64 5.02 5.55 7.33.61.74 1.62 1.48 1.33 2.54-.21.78-.92.76-1.6.59-2.33-.59-4.56-1.9-6.67-3-2.98-1.55-6.38-2.66-9.53-.92-3.07 1.69-4.5 5.14-6.43 7.87-1.15 1.64-2.95.88-3.46-.76-.85-2.66-.8-5.8-3.6-7.27-3.05-1.61-6.83-.17-9.85.66-1.57.43-4.22 1.49-5.78.66-1.88-.99.72-3.78 1.34-4.51 2.16-2.56 4.4-5.3 5.55-8.48 1.5-4.18-1.81-7.12-4.73-9.51-.89-.73-6.16-4.8-3.62-6.03 1.61-.78 4.1.15 5.73.49 2.12.43 4.38.83 6.48.05 4.26-1.57 4.01-6.6 4.88-10.24.22-.93.33-2.49 1.24-3.01 1.12-.65 2.08.38 2.58 1.34.63 1.24.97 2.6 1.56 3.85.94 2.02 2.13 4.03 4.14 5.14 4.21 2.32 9.2-.64 12.77-2.85.9-.56 1.9-1.67 2.95-1.86 1.07-.19 1.15 1.04.88 1.8-.27.73-.58 1.48-.86 2.21-1.03 2.7-2.23 5.92-.71 8.67 1.23 2.22 3.62 3.38 5.91 4.2.76.27 2.89.6 4.35 1.25.51.23 1.48.85 1.45 1.52-.03 1.48-4.46 1.53-5.52 1.68z" fill="#fcc21b"/></svg>

<?xml version="1.0" encoding="UTF-8" standalone="no"?>
<!DOCTYPE svg PUBLIC "-//W3C//DTD SVG 1.1//EN" "http://www.w3.org/Graphics/SVG/1.1/DTD/svg11.dtd">
<svg width="100%" height="100%" viewBox="0 0 128 128" version="1.1" xmlns="http://www.w3.org/2000/svg" xmlns:xlink="http://www.w3.org/1999/xlink" xml:space="preserve" xmlns:serif="http://www.serif.com/" style="fill-rule:evenodd;clip-rule:evenodd;stroke-linejoin:round;stroke-miterlimit:2;">
    <path d="M120.82,72.98C117.72,71.9 114.49,71.27 111.34,70.34C110.11,69.97 108.64,69.69 107.71,68.74C105.32,66.28 110.21,64.52 111.96,63.93C113.06,63.56 114.07,63.12 115.13,62.65C116.17,62.18 126.14,59.58 122.43,57.31C121.64,56.83 120.67,56.76 119.81,56.49C117.71,55.84 115.56,55.38 113.43,54.82C111.42,54.29 108.86,54.73 107.13,53.36C103.7,50.66 108.81,46.87 110.91,45.55C112.12,44.79 114.36,43.78 114.37,42.07C114.38,39.51 110.85,40.14 109.29,40.03C107.13,39.87 104.96,39.74 102.8,39.56C101.8,39.48 100.43,39.28 99.64,38.61C98.63,37.76 99.74,35.83 100.11,34.87C101.22,31.92 102.55,29.06 103.95,26.24C105.63,22.85 107.43,19.52 109.12,16.13C109.97,14.44 110.79,12.73 111.56,11.01C112.12,9.76 113.45,7.09 111.64,6.29C110.14,5.64 108.55,6.89 107.43,7.73C106.93,8.1 106.45,8.47 105.96,8.85C102.9,11.22 99.96,13.74 97.05,16.29C94.15,18.84 91.28,21.43 88.36,23.96C87.62,24.6 86.84,25.22 85.97,25.69C84.79,26.33 83.32,26.64 82.46,25.35C81.58,24.03 81.54,22.16 81.5,20.63C81.45,18.59 81.58,16.55 81.69,14.52C81.77,13.02 82.11,11.33 81.59,9.88C80.75,7.52 78.12,8.45 77.01,9.93C75.84,11.48 75.24,13.4 74.36,15.11C73.15,17.49 71.86,19.86 70.26,22.01C68.96,23.76 67.33,25.64 65.18,26.33C62.95,27.05 60.9,25.91 59.39,24.29C57.77,22.55 56.2,20.77 54.66,18.96C52.08,15.93 49.59,12.82 47.09,9.71C45.85,8.16 44.61,6.61 43.34,5.07C42.52,4.07 41.19,2.28 39.72,2.39C37,2.61 38.9,8.95 39.1,10.4C39.56,13.71 39.82,17.04 40.52,20.31C40.99,22.53 41.54,24.72 41.93,26.96C42.17,28.36 42.42,30.99 41.18,32.05C39.5,33.47 37.21,31.28 35.86,30.46C34.98,29.93 34.22,29.22 33.34,28.68C29.59,26.37 29.57,30.26 29.87,32.99C30.05,34.68 30.3,36.04 28.15,35.95C26.4,35.87 24.65,34.87 23.02,34.3C20.98,33.6 18.95,32.88 16.92,32.15C12.96,30.73 9,29.3 5,27.97C3.94,27.62 2.36,28.23 2.02,29.35C1.34,31.58 5.71,35.83 6.95,37.41C10.8,42.3 15.74,46.09 19.66,50.89C21.36,52.99 23.44,56.19 22.16,58.97C20.86,61.82 16.83,63.21 14.21,64.6C12.63,65.44 8.11,67.58 9.88,70.01C10.2,70.45 10.95,70.76 11.44,70.97C12.23,71.32 13.09,71.56 13.93,71.72C16.8,72.27 19.72,72.45 22.62,72.79C24.93,73.06 27.71,74.16 27.24,76.89C26.68,80.17 23.67,83.22 21.53,85.57C18.28,89.13 14.86,92.54 11.51,96C10.33,97.22 2.8,103.46 5.28,105.32C6.73,106.41 10.18,104.94 11.73,104.57C17.51,103.18 23.28,101.72 29.01,100.13C30.56,99.7 32.11,99.25 33.64,98.78C37.88,97.47 43.22,96.25 43.92,102.15C44.31,105.33 44.27,108.54 44.57,111.73C44.96,115.73 44.73,119.9 45.79,123.78C46.4,126.03 48.8,126.03 50.17,124.66C51.88,122.95 52.78,120.31 53.87,118.18C55.19,115.58 56.4,112.94 57.67,110.32C59.09,107.37 60.69,103.16 63.92,101.77C67.18,100.37 69.36,103.35 71.27,105.48C73.11,107.54 74.78,109.76 76.75,111.72C77.91,112.88 78.99,114.27 80.48,115.03C81.11,115.35 81.87,115.58 82.43,115.04C84.02,113.49 83.53,111.24 83.92,109.27C84.55,106.09 85.2,102.28 87.37,99.74C89.57,97.18 92.8,98.4 95.49,99.29C99.4,100.58 103.29,101.92 107.17,103.31C109.35,104.09 111.54,104.86 113.7,105.69C115.14,106.24 116.67,106.56 118.13,107.01C118.94,107.26 119.72,107.6 120.54,107.82C122.81,108.44 125.75,107.69 123.7,105C122.09,102.88 119.71,101.28 117.79,99.45C115.55,97.33 113.34,95.16 111.04,93.12C108.31,90.7 105.22,88.54 103.38,85.31C102.7,84.13 101.65,82.47 102.48,81.11C103.36,79.65 105.88,79.56 107.36,79.21C111.13,78.32 115.02,78.51 118.86,78.36C120.78,78.29 123.54,78.44 125.23,77.46C128.27,75.69 122.06,73.42 120.82,72.98Z" style="fill:rgb(219,68,55);fill-rule:nonzero;"/>
    <g transform="matrix(0.847721,0,0,0.847721,9.74644,9.74458)">
        <path d="M120.82,72.98C117.72,71.9 114.49,71.27 111.34,70.34C110.11,69.97 108.64,69.69 107.71,68.74C105.32,66.28 110.21,64.52 111.96,63.93C113.06,63.56 114.07,63.12 115.13,62.65C116.17,62.18 126.14,59.58 122.43,57.31C121.64,56.83 120.67,56.76 119.81,56.49C117.71,55.84 115.56,55.38 113.43,54.82C111.42,54.29 108.86,54.73 107.13,53.36C103.7,50.66 108.81,46.87 110.91,45.55C112.12,44.79 114.36,43.78 114.37,42.07C114.38,39.51 110.85,40.14 109.29,40.03C107.13,39.87 104.96,39.74 102.8,39.56C101.8,39.48 100.43,39.28 99.64,38.61C98.63,37.76 99.74,35.83 100.11,34.87C101.22,31.92 102.55,29.06 103.95,26.24C105.63,22.85 107.43,19.52 109.12,16.13C109.97,14.44 110.79,12.73 111.56,11.01C112.12,9.76 113.45,7.09 111.64,6.29C110.14,5.64 108.55,6.89 107.43,7.73C106.93,8.1 106.45,8.47 105.96,8.85C102.9,11.22 99.96,13.74 97.05,16.29C94.15,18.84 91.28,21.43 88.36,23.96C87.62,24.6 86.84,25.22 85.97,25.69C84.79,26.33 83.32,26.64 82.46,25.35C81.58,24.03 81.54,22.16 81.5,20.63C81.45,18.59 81.58,16.55 81.69,14.52C81.77,13.02 82.11,11.33 81.59,9.88C80.75,7.52 78.12,8.45 77.01,9.93C75.84,11.48 75.24,13.4 74.36,15.11C73.15,17.49 71.86,19.86 70.26,22.01C68.96,23.76 67.33,25.64 65.18,26.33C62.95,27.05 60.9,25.91 59.39,24.29C57.77,22.55 56.2,20.77 54.66,18.96C52.08,15.93 49.59,12.82 47.09,9.71C45.85,8.16 44.61,6.61 43.34,5.07C42.52,4.07 41.19,2.28 39.72,2.39C37,2.61 38.9,8.95 39.1,10.4C39.56,13.71 39.82,17.04 40.52,20.31C40.99,22.53 41.54,24.72 41.93,26.96C42.17,28.36 42.42,30.99 41.18,32.05C39.5,33.47 37.21,31.28 35.86,30.46C34.98,29.93 34.22,29.22 33.34,28.68C29.59,26.37 29.57,30.26 29.87,32.99C30.05,34.68 30.3,36.04 28.15,35.95C26.4,35.87 24.65,34.87 23.02,34.3C20.98,33.6 18.95,32.88 16.92,32.15C12.96,30.73 9,29.3 5,27.97C3.94,27.62 2.36,28.23 2.02,29.35C1.34,31.58 5.71,35.83 6.95,37.41C10.8,42.3 15.74,46.09 19.66,50.89C21.36,52.99 23.44,56.19 22.16,58.97C20.86,61.82 16.83,63.21 14.21,64.6C12.63,65.44 8.11,67.58 9.88,70.01C10.2,70.45 10.95,70.76 11.44,70.97C12.23,71.32 13.09,71.56 13.93,71.72C16.8,72.27 19.72,72.45 22.62,72.79C24.93,73.06 27.71,74.16 27.24,76.89C26.68,80.17 23.67,83.22 21.53,85.57C18.28,89.13 14.86,92.54 11.51,96C10.33,97.22 2.8,103.46 5.28,105.32C6.73,106.41 10.18,104.94 11.73,104.57C17.51,103.18 23.28,101.72 29.01,100.13C30.56,99.7 32.11,99.25 33.64,98.78C37.88,97.47 43.22,96.25 43.92,102.15C44.31,105.33 44.27,108.54 44.57,111.73C44.96,115.73 44.73,119.9 45.79,123.78C46.4,126.03 48.8,126.03 50.17,124.66C51.88,122.95 52.78,120.31 53.87,118.18C55.19,115.58 56.4,112.94 57.67,110.32C59.09,107.37 60.69,103.16 63.92,101.77C67.18,100.37 69.36,103.35 71.27,105.48C73.11,107.54 74.78,109.76 76.75,111.72C77.91,112.88 78.99,114.27 80.48,115.03C81.11,115.35 81.87,115.58 82.43,115.04C84.02,113.49 83.53,111.24 83.92,109.27C84.55,106.09 85.2,102.28 87.37,99.74C89.57,97.18 92.8,98.4 95.49,99.29C99.4,100.58 103.29,101.92 107.17,103.31C109.35,104.09 111.54,104.86 113.7,105.69C115.14,106.24 116.67,106.56 118.13,107.01C118.94,107.26 119.72,107.6 120.54,107.82C122.81,108.44 125.75,107.69 123.7,105C122.09,102.88 119.71,101.28 117.79,99.45C115.55,97.33 113.34,95.16 111.04,93.12C108.31,90.7 105.22,88.54 103.38,85.31C102.7,84.13 101.65,82.47 102.48,81.11C103.36,79.65 105.88,79.56 107.36,79.21C111.13,78.32 115.02,78.51 118.86,78.36C120.78,78.29 123.54,78.44 125.23,77.46C128.27,75.69 122.06,73.42 120.82,72.98Z" style="fill:rgb(237,108,48);fill-rule:nonzero;"/>
    </g>
    <g transform="matrix(0.675921,0,0,0.675921,20.7423,20.7383)">
        <path d="M120.82,72.98C117.72,71.9 114.49,71.27 111.34,70.34C110.11,69.97 108.64,69.69 107.71,68.74C105.32,66.28 110.21,64.52 111.96,63.93C113.06,63.56 114.07,63.12 115.13,62.65C116.17,62.18 126.14,59.58 122.43,57.31C121.64,56.83 120.67,56.76 119.81,56.49C117.71,55.84 115.56,55.38 113.43,54.82C111.42,54.29 108.86,54.73 107.13,53.36C103.7,50.66 108.81,46.87 110.91,45.55C112.12,44.79 114.36,43.78 114.37,42.07C114.38,39.51 110.85,40.14 109.29,40.03C107.13,39.87 104.96,39.74 102.8,39.56C101.8,39.48 100.43,39.28 99.64,38.61C98.63,37.76 99.74,35.83 100.11,34.87C101.22,31.92 102.55,29.06 103.95,26.24C105.63,22.85 107.43,19.52 109.12,16.13C109.97,14.44 110.79,12.73 111.56,11.01C112.12,9.76 113.45,7.09 111.64,6.29C110.14,5.64 108.55,6.89 107.43,7.73C106.93,8.1 106.45,8.47 105.96,8.85C102.9,11.22 99.96,13.74 97.05,16.29C94.15,18.84 91.28,21.43 88.36,23.96C87.62,24.6 86.84,25.22 85.97,25.69C84.79,26.33 83.32,26.64 82.46,25.35C81.58,24.03 81.54,22.16 81.5,20.63C81.45,18.59 81.58,16.55 81.69,14.52C81.77,13.02 82.11,11.33 81.59,9.88C80.75,7.52 78.12,8.45 77.01,9.93C75.84,11.48 75.24,13.4 74.36,15.11C73.15,17.49 71.86,19.86 70.26,22.01C68.96,23.76 67.33,25.64 65.18,26.33C62.95,27.05 60.9,25.91 59.39,24.29C57.77,22.55 56.2,20.77 54.66,18.96C52.08,15.93 49.59,12.82 47.09,9.71C45.85,8.16 44.61,6.61 43.34,5.07C42.52,4.07 41.19,2.28 39.72,2.39C37,2.61 38.9,8.95 39.1,10.4C39.56,13.71 39.82,17.04 40.52,20.31C40.99,22.53 41.54,24.72 41.93,26.96C42.17,28.36 42.42,30.99 41.18,32.05C39.5,33.47 37.21,31.28 35.86,30.46C34.98,29.93 34.22,29.22 33.34,28.68C29.59,26.37 29.57,30.26 29.87,32.99C30.05,34.68 30.3,36.04 28.15,35.95C26.4,35.87 24.65,34.87 23.02,34.3C20.98,33.6 18.95,32.88 16.92,32.15C12.96,30.73 9,29.3 5,27.97C3.94,27.62 2.36,28.23 2.02,29.35C1.34,31.58 5.71,35.83 6.95,37.41C10.8,42.3 15.74,46.09 19.66,50.89C21.36,52.99 23.44,56.19 22.16,58.97C20.86,61.82 16.83,63.21 14.21,64.6C12.63,65.44 8.11,67.58 9.88,70.01C10.2,70.45 10.95,70.76 11.44,70.97C12.23,71.32 13.09,71.56 13.93,71.72C16.8,72.27 19.72,72.45 22.62,72.79C24.93,73.06 27.71,74.16 27.24,76.89C26.68,80.17 23.67,83.22 21.53,85.57C18.28,89.13 14.86,92.54 11.51,96C10.33,97.22 2.8,103.46 5.28,105.32C6.73,106.41 10.18,104.94 11.73,104.57C17.51,103.18 23.28,101.72 29.01,100.13C30.56,99.7 32.11,99.25 33.64,98.78C37.88,97.47 43.22,96.25 43.92,102.15C44.31,105.33 44.27,108.54 44.57,111.73C44.96,115.73 44.73,119.9 45.79,123.78C46.4,126.03 48.8,126.03 50.17,124.66C51.88,122.95 52.78,120.31 53.87,118.18C55.19,115.58 56.4,112.94 57.67,110.32C59.09,107.37 60.69,103.16 63.92,101.77C67.18,100.37 69.36,103.35 71.27,105.48C73.11,107.54 74.78,109.76 76.75,111.72C77.91,112.88 78.99,114.27 80.48,115.03C81.11,115.35 81.87,115.58 82.43,115.04C84.02,113.49 83.53,111.24 83.92,109.27C84.55,106.09 85.2,102.28 87.37,99.74C89.57,97.18 92.8,98.4 95.49,99.29C99.4,100.58 103.29,101.92 107.17,103.31C109.35,104.09 111.54,104.86 113.7,105.69C115.14,106.24 116.67,106.56 118.13,107.01C118.94,107.26 119.72,107.6 120.54,107.82C122.81,108.44 125.75,107.69 123.7,105C122.09,102.88 119.71,101.28 117.79,99.45C115.55,97.33 113.34,95.16 111.04,93.12C108.31,90.7 105.22,88.54 103.38,85.31C102.7,84.13 101.65,82.47 102.48,81.11C103.36,79.65 105.88,79.56 107.36,79.21C111.13,78.32 115.02,78.51 118.86,78.36C120.78,78.29 123.54,78.44 125.23,77.46C128.27,75.69 122.06,73.42 120.82,72.98Z" style="fill:rgb(253,221,78);fill-rule:nonzero;"/>
    </g>
    <g transform="matrix(1.4947,0,0,1.4947,-33.0771,-32.2052)">
        <path d="M88.36,67.72C84.89,68.22 80.55,70.12 82.03,74.31C83.06,77.22 85.67,79.33 87.58,81.64C88.19,82.38 89.2,83.12 88.91,84.18C88.7,84.96 87.99,84.94 87.31,84.77C84.98,84.18 82.75,82.87 80.64,81.77C77.66,80.22 74.26,79.11 71.11,80.85C68.04,82.54 66.61,85.99 64.68,88.72C63.53,90.36 61.73,89.6 61.22,87.96C60.37,85.3 60.42,82.16 57.62,80.69C54.57,79.08 50.79,80.52 47.77,81.35C46.2,81.78 43.55,82.84 41.99,82.01C40.11,81.02 42.71,78.23 43.33,77.5C45.49,74.94 47.73,72.2 48.88,69.02C50.38,64.84 47.07,61.9 44.15,59.51C43.26,58.78 37.99,54.71 40.53,53.48C42.14,52.7 44.63,53.63 46.26,53.97C48.38,54.4 50.64,54.8 52.74,54.02C57,52.45 56.75,47.42 57.62,43.78C57.84,42.85 57.95,41.29 58.86,40.77C59.98,40.12 60.94,41.15 61.44,42.11C62.07,43.35 62.41,44.71 63,45.96C63.94,47.98 65.13,49.99 67.14,51.1C71.35,53.42 76.34,50.46 79.91,48.25C80.81,47.69 81.81,46.58 82.86,46.39C83.93,46.2 84.01,47.43 83.74,48.19C83.47,48.92 83.16,49.67 82.88,50.4C81.85,53.1 80.65,56.32 82.17,59.07C83.4,61.29 85.79,62.45 88.08,63.27C88.84,63.54 90.97,63.87 92.43,64.52C92.94,64.75 93.91,65.37 93.88,66.04C93.85,67.52 89.42,67.57 88.36,67.72Z" style="fill:rgb(124,179,66);fill-rule:nonzero;"/>
    </g>
    <g transform="matrix(1.20942,0,0,1.20942,-14.0023,-13.6332)">
        <path d="M88.36,67.72C84.89,68.22 80.55,70.12 82.03,74.31C83.06,77.22 85.67,79.33 87.58,81.64C88.19,82.38 89.2,83.12 88.91,84.18C88.7,84.96 87.99,84.94 87.31,84.77C84.98,84.18 82.75,82.87 80.64,81.77C77.66,80.22 74.26,79.11 71.11,80.85C68.04,82.54 66.61,85.99 64.68,88.72C63.53,90.36 61.73,89.6 61.22,87.96C60.37,85.3 60.42,82.16 57.62,80.69C54.57,79.08 50.79,80.52 47.77,81.35C46.2,81.78 43.55,82.84 41.99,82.01C40.11,81.02 42.71,78.23 43.33,77.5C45.49,74.94 47.73,72.2 48.88,69.02C50.38,64.84 47.07,61.9 44.15,59.51C43.26,58.78 37.99,54.71 40.53,53.48C42.14,52.7 44.63,53.63 46.26,53.97C48.38,54.4 50.64,54.8 52.74,54.02C57,52.45 56.75,47.42 57.62,43.78C57.84,42.85 57.95,41.29 58.86,40.77C59.98,40.12 60.94,41.15 61.44,42.11C62.07,43.35 62.41,44.71 63,45.96C63.94,47.98 65.13,49.99 67.14,51.1C71.35,53.42 76.34,50.46 79.91,48.25C80.81,47.69 81.81,46.58 82.86,46.39C83.93,46.2 84.01,47.43 83.74,48.19C83.47,48.92 83.16,49.67 82.88,50.4C81.85,53.1 80.65,56.32 82.17,59.07C83.4,61.29 85.79,62.45 88.08,63.27C88.84,63.54 90.97,63.87 92.43,64.52C92.94,64.75 93.91,65.37 93.88,66.04C93.85,67.52 89.42,67.57 88.36,67.72Z" style="fill:rgb(30,157,219);fill-rule:nonzero;"/>
    </g>
    <g transform="matrix(0.784051,0,0,0.784051,14.4389,14.0583)">
        <path d="M88.36,67.72C84.89,68.22 80.55,70.12 82.03,74.31C83.06,77.22 85.67,79.33 87.58,81.64C88.19,82.38 89.2,83.12 88.91,84.18C88.7,84.96 87.99,84.94 87.31,84.77C84.98,84.18 82.75,82.87 80.64,81.77C77.66,80.22 74.26,79.11 71.11,80.85C68.04,82.54 66.61,85.99 64.68,88.72C63.53,90.36 61.73,89.6 61.22,87.96C60.37,85.3 60.42,82.16 57.62,80.69C54.57,79.08 50.79,80.52 47.77,81.35C46.2,81.78 43.55,82.84 41.99,82.01C40.11,81.02 42.71,78.23 43.33,77.5C45.49,74.94 47.73,72.2 48.88,69.02C50.38,64.84 47.07,61.9 44.15,59.51C43.26,58.78 37.99,54.71 40.53,53.48C42.14,52.7 44.63,53.63 46.26,53.97C48.38,54.4 50.64,54.8 52.74,54.02C57,52.45 56.75,47.42 57.62,43.78C57.84,42.85 57.95,41.29 58.86,40.77C59.98,40.12 60.94,41.15 61.44,42.11C62.07,43.35 62.41,44.71 63,45.96C63.94,47.98 65.13,49.99 67.14,51.1C71.35,53.42 76.34,50.46 79.91,48.25C80.81,47.69 81.81,46.58 82.86,46.39C83.93,46.2 84.01,47.43 83.74,48.19C83.47,48.92 83.16,49.67 82.88,50.4C81.85,53.1 80.65,56.32 82.17,59.07C83.4,61.29 85.79,62.45 88.08,63.27C88.84,63.54 90.97,63.87 92.43,64.52C92.94,64.75 93.91,65.37 93.88,66.04C93.85,67.52 89.42,67.57 88.36,67.72Z" style="fill:rgb(165,79,180);fill-rule:nonzero;"/>
    </g>
</svg>
